svgs/sharp-light/arrow-up-from-dotted-line.svg

<svg xmlns="http://www.w3.org/2000/svg" viewBox="0 0 448 512"><!--! Font Awesome Pro 6.6.0 by @fontawesome - https://fontawesome.com License - https://fontawesome.com/license (Commercial License) Copyright 2024 Fonticons, Inc. --><path d="M235.3 44.7L224 33.4 212.7 44.7l-128 128L73.4 184 96 206.6l11.3-11.3L208 94.6 208 336l0 16 32 0 0-16 0-241.4L340.7 195.3 352 206.6 374.6 184l-11.3-11.3-128-128zM56 424L8 424l0 48 48 0 0-48zm96 0l-48 0 0 48 48 0 0-48zm48 48l48 0 0-48-48 0 0 48zm144-48l-48 0 0 48 48 0 0-48zm48 0l0 48 48 0 0-48-48 0z"/></svg>

<svg xmlns="http://www.w3.org/2000/svg" viewBox="0 0 448 512"><!--! Font Awesome Pro 6.4.0 by @fontawesome - https://fontawesome.com License - https://fontawesome.com/license (Commercial License) Copyright 2023 Fonticons, Inc. --><path d="M235.3 44.7L224 33.4 212.7 44.7l-128 128L73.4 184 96 206.6l11.3-11.3L208 94.6V336v16h32V336 94.6L340.7 195.3 352 206.6 374.6 184l-11.3-11.3-128-128zM56 424H8v48H56V424zm96 0H104v48h48V424zm48 48h48V424H200v48zm144-48H296v48h48V424zm48 0v48h48V424H392z"/></svg>
